!!!COM: Music21
!!!OTL: Foliada de Bora
!!!OMV: pezas_foliadas_foliada-de-bora_foliada-de-bora-partitura.musicxml
**kern
*I"Bagpipes
*I'Bag
*clefG^2
*k[]
*M3/4
=1
!LO:TX:a:t=Prestissimo
*MM210
!LO:TX:a:t=[quarter]=210
2r
4cc
=||
4dd
4ee
4ff
=
4gg
4gg
4ff
=
4ee
4dd
4cc
=
2b
4dd
=
4ee
4ff
4gg
=
4aa
4aa
4gg
=
4ff
4ee
4dd
=
2cc
4cc
=
4dd
4ee
4ff
=
2gg
4ff
=
4ee
4dd
4cc
=
2b
4dd
!!linebreak:original
=
4ee
4ff
4gg
=
4aa
4aa
4gg
=
4ff
4ee
4dd
=
[2.cc
=
2.cc_
=
2.cc]
=||
4gg
4ccc
4ccc
=
4ccc
4ccc
4bb
=
2ccc
4bb
=
4aa
2bb
=
2ccc
4bb
=
4ccc
2bb
=
2aa
[4gg
=
2.gg]
!!linebreak:original
=||
4gg
4ccc
4ccc
=
4ccc
4ccc
4bb
=
2ccc
4bb
=
4aa
2bb
=
2ccc
4bb
=
4ccc
2bb
=
2aa
[4gg
=
2.gg]
=||
4aa
4aa
4aa
!!linebreak:original
=
4aa
4aa
4gg
=
2bb
4gg
=
4dd
4ee
4ff
=
2gg
4ee
=
4ff
4ee
4dd
=
[2.cc
=
2.cc]
=||
4aa
4aa
4aa
!!linebreak:original
=
4aa
4aa
4gg
=
2bb
4gg
=
4dd
4ee
4ff
=
2gg
4ee
=
4ff
4ee
4dd
=
[2.cc
=
4cc]
4cc
4dd
=||
4ee
4ff
4gg
=
4gg
4ff
4ee
=
4dd
4cc
[4b
=
8b]
8r
4dd
4ee
=
4ff
4gg
4aa
!!linebreak:original
=
4aa
4gg
4ff
=
4ee
4dd
[4cc
=
8cc]
8r
4cc
4dd
=
4ee
4ff
[4gg
=
4gg]
4ff
4ee
=
4dd
4cc
[4b
=
8b]
8r
4dd
4ee
=
4ff
4gg
4aa
=
4aa
4gg
4ff
=
4ee
4dd
4cc
=
4r
4ee
4cc
!!linebreak:original
=||
4dd
4b
[4cc
!!linebreak:original
=
2.cc_
=
2.cc_
=
2.cc_
=||
2cc]
4cc
=||
4dd
4b
[4cc
=
2.cc_
=
2.cc_
=
2.cc_
=
8cc]
8r
2r
==
*-
